X:1
T:Title
%%score { ( 1 4 ) | ( 2 3 ) }
L:1/8
M:6/8
K:F
V:1 treble nm="Grand Piano"
V:4 treble 
V:2 bass 
V:3 bass 
V:1
 z3 z2[Q:1/4=100] C | CAF EFG | F2 D C3 | FFF BBB |[M:5/8] A3 c2 |[M:1/8] c | %6
[M:3/4] cd [Ec][GB] [Ac][GB] | [FA]2 [_Ec] [DB]2 [DG] | FA F E2 G | F6 | A2 A/A/ c2 c | %11
 [GB]2 [GB]/[GB]/ [Ec]3 | A2 A/A/ G2 F | [EG]6 | dd G c2 F | B2 [GB] [FA]2 [DG] | [CF][FA] F E2 G | %17
[M:5/8] F-F- F3 |] %18
V:2
 z3 z2 [F,A,] | [F,A,][F,CF][F,A,C] G,A,[C,B,C] | [F,A,C]2 [F,B,] [F,A,]3 | %3
 [F,A,C][F,A,C][F,A,C][K:treble] FF[F,DF] |[M:5/8] C3[K:bass] A,2 |[M:1/8] [F,A,F] | %6
[M:3/4] [C,G,]2 [C,G,] [C,C]2 [E,C] | [F,C]2 [F,A,] [B,,B,]2 [B,,B,] | .[A,C]2 z2 z2 | [F,A,C]6 | %10
 [F,CF]2 [F,CF]/[F,CF]/ [F,A,F]2 [F,A,F] | [E,C]2 [E,C]/[E,C]/ [C,C]3 | %12
 [F,CF]2 [F,CF]/[F,CF]/ [G,=B,F]2 [G,B,] | [C,C]6 | [B,F][B,F] [B,DF] [A,CF]2 [A,C] | %15
 [G,CE]2 [E,C] [F,C]2 [B,,B,] | [C,A,][C,C] [C,A,C] [C,G,C]2 [C,B,C] | %17
[M:5/8] [F,A,C]-[F,A,C]- [F,A,C]3 |] %18
V:3
 x6 | z3 .[C,C]3 | x6 | z3[K:treble] .[F,D]3 |[M:5/8] [F,F]-[F,F]- [F,F]3[K:bass] |[M:1/8] x | %6
[M:3/4] x6 | x6 | C,-[C,CF] [C,A,C] [C,G,C]2 [C,B,C] | x6 | x6 | x6 | x6 | x6 | x6 | x6 | x6 | %17
[M:5/8] x5 |] %18
V:4
 x6 | x6 | x6 | x6 |[M:5/8] x5 |[M:1/8] x |[M:3/4] E2 z2 z2 | x6 | x6 | x6 | x6 | x6 | x6 | x6 | %14
 x6 | x6 | x6 |[M:5/8] x5 |] %18

